X:1
T:Sir Walter Scott Bart.
T:Sir Walter Scott Bart.
T:William Marshall
C:William Marshall
L:1/8
Q:1/4=80
M:4/4
K:Bb
V:1 treble 
V:1
 ([DB]>d){d} Tb>a .g/.f/.e/.d/{d} c2 | (B>c){d} Tb>c' d'Tfgb | %2
 (B>d){d} Tb>a{a} .g/.f/{f}.e/.d/{d} c2 | B>DB,f (e/f/)(Tc/d/) df :| %4
 (d>B)F3/2{Bd}f (e/f/)d/ c/{F} G2 | B,B Df (e/f/).c/.B/ dF | %6
 [EBg]>f (Tg/a/).b/.d/ (f/e/)Td/e/{d} Tc2 | (F3/2G/4A/4) (TB3/2(3d/4e/4f/4) (e/d/)(Tc/B/) df :| %8

